X:7708
T:Jabe Meadow Hornpipe
M:2/4
L:1/16
K:Bb
FE|DB,DF BEGB|AFAc BABc|dBgf edcB|ABcd cAFE|!
DB,DF BEGB|AFAc BABc|dBgf edcB|AFGA B2:|!
|:f2|gf=ef dfBc|dBAB GBFE|DFBc dBAB|gfdB c2f2|!
gf=ef dfBc|dBAB GBFE|DFBd ceAc|BABc B2:|!
